X:5005
T:Eleanor Plunkett
R:Air
C:Turlough O'Carolan (1670-1738)
O:Ireland
M:3/4
L:1/8
Q:1/4=100
K:Em
GA|"Em"B2 B2 AG|G2 G2 ag|e2 e2 ed|B2 B2 AG|E2 "Am"A2AB|"D"A4 ga|
"Em"b2ag ed|e4ef|g2g2b2|"D"a2ba gf|"Em"g2ag fe|"G"d2B2d2|
"Em"e2 g2 G2|B2 B2 AG|E2 "Am"A2 AB|"D"A4|]

